components/Common/Svg/svgs/next.svg

<svg width="12" height="20" viewBox="0 0 12 20" fill="none" xmlns="http://www.w3.org/2000/svg">
<path d="M9.12855 9.61374L9.12844 9.61364L1.12379 2.31063L1.22489 2.19982L1.12379 2.31063C0.757216 1.97615 0.757859 1.42815 1.12514 1.09444C1.30591 0.930195 1.54029 0.850008 1.77155 0.850008C2.00348 0.850008 2.23838 0.930607 2.4193 1.09567L2.31821 1.20648L2.41931 1.09567L10.4233 8.39804C11.3914 9.27946 11.3913 10.7204 10.4228 11.6024L9.12855 9.61374ZM9.12855 9.61374C9.36422 9.82831 9.3644 10.1715 9.12797 10.3868L9.12786 10.3869L1.12383 17.6894C0.757203 18.0239 0.757908 18.5719 1.12518 18.9056C1.48437 19.2319 2.06083 19.2314 2.41931 18.9043C2.41931 18.9043 2.41931 18.9043 2.41931 18.9043L10.4227 11.6025L9.12855 9.61374Z" fill="#161616" stroke="#161616" stroke-width="0.3"/>
</svg>

<svg width="12" height="20" viewBox="0 0 12 20" fill="none" xmlns="http://www.w3.org/2000/svg"><path d="M9.129 9.614 1.123 2.31l.1-.111-.1.11a.81.81 0 0 1 .001-1.216.96.96 0 0 1 .647-.244.96.96 0 0 1 .647.246l-.1.11.1-.11 8.004 7.302c.968.881.968 2.322 0 3.204L9.129 9.614Zm0 0a.51.51 0 0 1-.001.773l-8.004 7.302a.81.81 0 0 0 .001 1.217.977.977 0 0 0 1.294-.002l8.004-7.302-1.294-1.988Z" fill="#161616" stroke="#161616" stroke-width=".3"/></svg>
